src/actions/24/labplot-1x-zoom.svg

<svg xmlns="http://www.w3.org/2000/svg" viewBox="0 0 24 24">
    <path d="M3 3v2h1V4h1V3H3Zm5 0v1h2V3H8zm4 0v1h2V3h-2zm5 0v1h1v1h1V3h-2zM9 7v1h2.293L8 11.293l.707.707L12 8.707V11h1V7H9ZM3 8v2h1V8H3Zm0 5v6h6v-6H3zm1 1h4v4H4v-4z" style="fill:currentColor;fill-opacity:1;stroke:none;color:#050505;opacity:.7" transform="translate(1 1)"/>
    <path d="M19 19h-1v-8c-.508.439-1.58 1.424-2.094 1.846l-.571-.648L18 10h1z" style="fill:currentColor;fill-opacity:1;stroke:none;color:#a0b6cb" transform="translate(1 1)"/>
</svg>

<svg xmlns="http://www.w3.org/2000/svg" viewBox="0 0 24 24">
  <defs id="defs3051">
    <style type="text/css" id="current-color-scheme">
      .ColorScheme-Text {
        color:#363636;
      }
      .ColorScheme-Highlight {
        color:#a0b6cb;
      }
      </style>
  </defs><g transform="translate(1,1)">
 <path 
     style="fill:currentColor;fill-opacity:1;stroke:none" 
     d="M 3,3 3,5 4,5 4,4 5,4 5,3 3,3 Z m 5,0 0,1 2,0 0,-1 -2,0 z m 4,0 0,1 2,0 0,-1 -2,0 z m 5,0 0,1 1,0 0,1 1,0 0,-2 -2,0 z M 9,7 9,8 11.292969,8 8,11.292969 8.707031,12 12,8.707031 12,11 13,11 13,7 12,7 9,7 Z M 3,8 3,10 4,10 4,8 3,8 Z m 0,5 0,6 6,0 0,-6 -6,0 z m 1,1 4,0 0,4 -4,0 0,-4 z"
     class="ColorScheme-Text"
     />
 <path 
     style="fill:currentColor;fill-opacity:1;stroke:none" 
     d="m 19,19 -1,0 0,-8 c -0.508487,0.438772 -1.58039,1.423509 -2.094174,1.845943 L 15.334976,12.19775 18,10 l 1,0 z"
     class="ColorScheme-Highlight"
     />
</g></svg>
